X:60
T:Reel 60
M:4/4
K:Emin
L:1/8
E2EG FDDF|GFGA  (3B^cd AF|E2EG FDDF|GEFD  (3B,^CD A,2:|E2BE FAB^c|dBAG FDDF|E2EG FDDA|Beed Beed|dBB^c d2AF|EFGA B^cdA|edB^c d2AF|Eee^c d2BA|d^cde Bd^cdBA|Bee^c d2cA|B^cdB fBgf|e^cdB A2AA|B^cdc Bcdc|Beef gfed|cB^cd BABA|AcBA FA
